static/logos/trello-wordmark-color.svg

<svg width="100" height="21" viewBox="0 0 100 21" fill="none" xmlns="http://www.w3.org/2000/svg">
<g clip-path="url(#clip0_1_651)">
<path fill-rule="evenodd" clip-rule="evenodd" d="M17.8189 0.0834961H2.56574C1.25355 0.0834961 0.189307 1.1463 0.187519 2.45849V17.6893C0.184982 18.3216 0.434413 18.929 0.880687 19.3771C1.32696 19.8252 1.93334 20.077 2.56574 20.077H17.8189C18.4508 20.0763 19.0563 19.824 19.502 19.376C19.9475 18.928 20.1965 18.3211 20.1939 17.6893V2.45849C20.1922 1.14755 19.1299 0.0852612 17.8189 0.0834961ZM8.81577 14.4841C8.8149 14.6955 8.7299 14.8978 8.5795 15.0464C8.42919 15.195 8.22585 15.2775 8.01442 15.2759H4.68113C4.24515 15.274 3.89267 14.9201 3.89267 14.4841V4.56426C3.89267 4.12829 4.24515 3.77436 4.68113 3.77259H8.01442C8.45093 3.77436 8.80435 4.12777 8.80609 4.56426L8.81577 14.4841ZM16.5081 9.92967C16.5081 10.1413 16.4233 10.3441 16.2728 10.4928C16.1222 10.6417 15.9184 10.7239 15.7068 10.7214H12.3735C11.937 10.7196 11.5836 10.3662 11.5818 9.92967V4.56426C11.5836 4.12777 11.937 3.77436 12.3735 3.77259H15.7068C16.1428 3.77436 16.4952 4.12829 16.4952 4.56426L16.5081 9.92967Z" fill="url(#paint0_linear_1_651)"/>
<path d="M41.6395 1.54828V5.41366H37.0593V20.0772H32.6427V5.41366H28.0625V1.54828H41.6395Z" fill="#293856"/>
<path d="M47.263 20.0771H43.1797V5.65402H47.263V8.41688C48.0387 6.47133 49.2791 5.31428 51.4874 5.4553V9.72775C48.6028 9.50339 47.263 10.2085 47.263 12.5194V20.0771Z" fill="#293856"/>
<path d="M73.7965 20.1893C71.1202 20.1893 69.4375 18.9072 69.4375 15.8751V0.0834961H73.5496V15.3111C73.5496 16.1861 74.1265 16.497 74.8317 16.497C75.0351 16.5011 75.2385 16.4914 75.4407 16.4681V20.0226C74.9029 20.1536 74.3496 20.2097 73.7965 20.1893Z" fill="#293856"/>
<path d="M82.3697 20.1893C79.6935 20.1893 78.0078 18.9072 78.0078 15.8751V0.0834961H82.1197V15.3111C82.1197 16.1861 82.6999 16.497 83.4181 16.497C83.6205 16.5012 83.8229 16.4915 84.0237 16.4681V20.0226C83.4832 20.1548 82.9261 20.2109 82.3697 20.1893Z" fill="#293856"/>
<path d="M86 12.8592C86 8.40402 88.5643 5.35596 92.981 5.35596C97.3976 5.35596 99.9071 8.39442 99.9071 12.8592C99.9071 17.3239 97.3683 20.4169 92.981 20.4169C88.5929 20.4169 86 17.2854 86 12.8592ZM90.0032 12.8592C90.0032 15.029 90.9135 16.7502 92.981 16.7502C95.0484 16.7502 95.9071 15.029 95.9071 12.8592C95.9071 10.6893 95.0254 9.01299 92.981 9.01299C90.9357 9.01299 90.0032 10.6861 90.0032 12.8592Z" fill="#293856"/>
<path d="M56.9996 14.1636C58.1428 14.2892 59.2918 14.3566 60.4419 14.3655C63.5701 14.3655 66.2111 13.5258 66.2111 10.4969C66.2111 7.55782 63.4964 5.34949 60.2304 5.34949C55.8329 5.34949 53.0156 8.53857 53.0156 12.9937C53.0156 17.6187 55.4451 20.3655 60.9355 20.3655C62.5643 20.3788 64.1814 20.0897 65.7047 19.5129V16.0579C64.2944 16.5098 62.7079 16.9585 61.0797 16.9585C58.8938 16.9585 57.3714 16.2405 56.9996 14.1636ZM60.1471 8.4969C61.3041 8.4969 62.2336 9.28214 62.2336 10.3559C62.2336 11.7373 60.7752 12.17 59.0958 12.17C58.3809 12.1667 57.6674 12.1099 56.9611 12.0002C57.0145 11.3267 57.2077 10.6717 57.5284 10.0771C58.0524 9.11746 59.0538 8.51571 60.1471 8.50333V8.4969Z" fill="#293856"/>
</g>
<defs>
<linearGradient id="paint0_linear_1_651" x1="10.2004" y1="20.077" x2="10.2004" y2="0.0834961" gradientUnits="userSpaceOnUse">
<stop stop-color="#0052CC"/>
<stop offset="1" stop-color="#2684FF"/>
</linearGradient>
<clipPath id="clip0_1_651">
<rect width="100" height="20.6349" fill="white"/>
</clipPath>
</defs>
</svg>

<svg xmlns="http://www.w3.org/2000/svg" width="304.762" height="64" fill="none" viewBox="0 0 100 21"><g clip-path="url(#a)"><path fill="url(#b)" fill-rule="evenodd" d="M17.819.083H2.566A2.378 2.378 0 0 0 .188 2.458V17.69a2.378 2.378 0 0 0 2.378 2.388h15.253a2.378 2.378 0 0 0 2.375-2.388V2.46A2.378 2.378 0 0 0 17.819.082ZM8.816 14.484a.795.795 0 0 1-.802.792H4.681a.792.792 0 0 1-.788-.792v-9.92c0-.436.352-.79.788-.791h3.333c.437.001.79.355.792.791l.01 9.92Zm7.692-4.554a.792.792 0 0 1-.801.791h-3.334a.795.795 0 0 1-.791-.791V4.564a.795.795 0 0 1 .791-.791h3.334a.792.792 0 0 1 .788.791l.013 5.366Z" clip-rule="evenodd"/><path fill="#293856" d="M41.64 1.548v3.866h-4.58v14.663h-4.417V5.414h-4.58V1.548h13.576ZM47.263 20.077H43.18V5.654h4.083v2.763c.776-1.946 2.016-3.103 4.224-2.962v4.273c-2.884-.225-4.224.48-4.224 2.791v7.558ZM73.796 20.19c-2.676 0-4.359-1.283-4.359-4.315V.083h4.113v15.228c0 .875.576 1.186 1.282 1.186.203.004.407-.006.609-.029v3.555a6.011 6.011 0 0 1-1.645.166ZM82.37 20.19c-2.677 0-4.362-1.283-4.362-4.315V.083h4.112v15.228c0 .875.58 1.186 1.298 1.186.203.004.405-.006.606-.029v3.555a5.987 5.987 0 0 1-1.654.166ZM86 12.86c0-4.456 2.564-7.504 6.981-7.504s6.926 3.038 6.926 7.503-2.539 7.558-6.926 7.558c-4.388 0-6.981-3.132-6.981-7.558Zm4.003 0c0 2.169.91 3.89 2.978 3.89 2.067 0 2.926-1.721 2.926-3.89 0-2.17-.882-3.847-2.926-3.847-2.045 0-2.978 1.673-2.978 3.846ZM57 14.164c1.143.125 2.292.193 3.442.202 3.128 0 5.77-.84 5.77-3.87 0-2.938-2.716-5.147-5.982-5.147-4.397 0-7.214 3.19-7.214 7.645 0 4.625 2.43 7.372 7.92 7.372a13.164 13.164 0 0 0 4.769-.853v-3.455c-1.41.452-2.997.9-4.625.9-2.186 0-3.709-.717-4.08-2.794Zm3.147-5.667c1.157 0 2.087.785 2.087 1.859 0 1.381-1.459 1.814-3.138 1.814A14.34 14.34 0 0 1 56.96 12a4.86 4.86 0 0 1 .567-1.923 3.023 3.023 0 0 1 2.62-1.574v-.006Z"/></g><defs><linearGradient id="b" x1="10.2" x2="10.2" y1="20.077" y2=".083" gradientUnits="userSpaceOnUse"><stop stop-color="#0052CC"/><stop offset="1" stop-color="#2684FF"/></linearGradient><clipPath id="a"><path fill="#fff" d="M0 0h100v20.635H0z"/></clipPath></defs></svg>
